src/assets/icons/filters/categories/house_selected.svg

<svg width="46" height="48" viewBox="0 0 46 48" fill="none" xmlns="http://www.w3.org/2000/svg">
<path fill-rule="evenodd" clip-rule="evenodd" d="M37.6819 4.62286L44.5746 16.3031C45.1452 17.2703 45.139 18.4068 44.5856 19.3818C44.0542 20.3161 43.4319 20.9102 41.9364 21.0435V38.6916C41.9434 39.9132 41.7085 41.1241 41.2453 42.2544C40.7821 43.3848 40.0996 44.4123 39.2373 45.2776C38.3751 46.143 37.35 46.829 36.2213 47.2963C35.0925 47.7635 33.8825 48.0027 32.6609 48H12.3494C11.1278 48.0027 9.91777 47.7635 8.78905 47.2963C7.66032 46.829 6.63525 46.143 5.77297 45.2776C4.91069 44.4123 4.22826 43.3848 3.76502 42.2544C3.30178 41.1241 3.06691 39.9132 3.07395 38.6916V21.0451C1.57845 20.9102 0.956115 20.3287 0.424698 19.3928C-0.128666 18.4178 -0.152179 17.2703 0.418428 16.3046L7.32842 4.62129C7.93665 3.58981 9.09981 2.99882 10.3602 2.99882H13.5565C13.66 1.49863 14.9862 0 16.6196 0H19.4225C21.0559 0 22.3821 1.49863 22.4856 2.99882H34.6502C35.9121 2.99882 37.0721 3.58981 37.6803 4.62286H37.6819Z" fill="#13C1AC" fill-opacity="0.7"/>
<path fill-rule="evenodd" clip-rule="evenodd" d="M32.6609 45.0012H29.9787V37.8733C29.9787 35.1864 27.7997 32.998 25.1223 32.998H19.8896C18.5991 33.0013 17.3626 33.5166 16.4515 34.4306C15.5404 35.3446 15.0292 36.5827 15.03 37.8733V44.9996H12.3494C8.91954 44.9996 6.06336 42.1309 6.06336 38.69V20.9996H38.947V38.6916C38.947 42.134 36.0908 45.0012 32.6609 45.0012V45.0012ZM26.9893 45.0012H18.021V37.8733C18.021 36.8402 18.8597 35.9984 19.8896 35.9984H25.1223C26.1522 35.9984 26.9893 36.8402 26.9893 37.8733V44.9996V45.0012ZM10.0749 6.15127C10.1073 6.10547 10.15 6.06787 10.1995 6.04147C10.249 6.01507 10.3041 6.0006 10.3602 5.99921H13.5361V7.49941C13.5361 8.3271 14.2071 8.9996 15.0316 8.9996C15.4285 8.99836 15.8087 8.8397 16.0888 8.55845C16.3689 8.2772 16.526 7.89633 16.5255 7.49941L16.6196 3.00039L19.515 3.09445V7.49941C19.515 8.3271 20.1859 8.9996 21.0104 8.9996C21.4074 8.99836 21.7876 8.8397 22.0677 8.55845C22.3477 8.2772 22.5048 7.89633 22.5044 7.49941V5.99921H34.6517C34.8179 5.99921 34.9182 6.12462 34.9339 6.15284L41.847 17.8205C41.8345 17.8424 41.7498 17.9992 41.5601 17.9992H3.45017C3.30909 17.9992 3.22757 17.8848 3.18838 17.8926L10.0749 6.15127V6.15127ZM37.6803 4.62286L44.5746 16.3031C45.1452 17.2703 45.139 18.4068 44.5856 19.3818C44.0542 20.3161 43.4319 20.9102 41.9364 21.0435V38.6916C41.9434 39.9132 41.7085 41.1241 41.2453 42.2544C40.7821 43.3848 40.0996 44.4123 39.2373 45.2776C38.3751 46.143 37.35 46.829 36.2213 47.2963C35.0925 47.7635 33.8825 48.0027 32.6609 48H12.3494C11.1278 48.0027 9.91777 47.7635 8.78905 47.2963C7.66032 46.829 6.63525 46.143 5.77297 45.2776C4.91069 44.4123 4.22826 43.3848 3.76502 42.2544C3.30178 41.1241 3.06691 39.9132 3.07395 38.6916V21.0451C1.57845 20.9102 0.956115 20.3287 0.424698 19.3928C-0.128666 18.4178 -0.152179 17.2703 0.418428 16.3046L7.32842 4.62129C7.93665 3.58981 9.09981 2.99882 10.3602 2.99882H13.5565C13.66 1.49863 14.9862 0 16.6196 0H19.4225C21.0559 0 22.3821 1.49863 22.4856 2.99882H34.6502C35.9121 2.99882 37.0721 3.58981 37.6803 4.62286V4.62286ZM13.5361 25.5002C13.1392 25.5014 12.759 25.6601 12.4789 25.9413C12.1988 26.2226 12.0418 26.6035 12.0422 27.0004V28.5006C12.0422 29.3283 12.7116 30.0008 13.5361 30.0008C13.9333 29.9999 14.3139 29.8415 14.5943 29.5602C14.8748 29.2789 15.032 28.8978 15.0316 28.5006V27.0004C15.032 26.6032 14.8748 26.2221 14.5943 25.9408C14.3139 25.6595 13.9333 25.501 13.5361 25.5002V25.5002ZM19.5165 25.5002C19.1193 25.501 18.7387 25.6595 18.4583 25.9408C18.1779 26.2221 18.0206 26.6032 18.021 27.0004V28.5006C18.021 29.3283 18.6904 30.0008 19.5165 30.0008C19.9134 29.9995 20.2937 29.8409 20.5737 29.5596C20.8538 29.2784 21.0109 28.8975 21.0104 28.5006V27.0004C21.0109 26.6035 20.8538 26.2226 20.5737 25.9413C20.2937 25.6601 19.9134 25.5014 19.5165 25.5002V25.5002ZM25.4954 25.5002C25.0982 25.501 24.7176 25.6595 24.4371 25.9408C24.1567 26.2221 23.9994 26.6032 23.9999 27.0004V28.5006C23.9999 29.3283 24.6692 30.0008 25.4954 30.0008C25.8923 29.9995 26.2725 29.8409 26.5526 29.5596C26.8326 29.2784 26.9897 28.8975 26.9893 28.5006V27.0004C26.9897 26.6035 26.8326 26.2226 26.5526 25.9413C26.2725 25.6601 25.8923 25.5014 25.4954 25.5002V25.5002ZM31.4742 25.5002C31.077 25.501 30.6964 25.6595 30.416 25.9408C30.1356 26.2221 29.9783 26.6032 29.9787 27.0004V28.5006C29.9787 29.3283 30.6481 30.0008 31.4742 30.0008C31.8711 29.9995 32.2513 29.8409 32.5314 29.5596C32.8115 29.2784 32.9685 28.8975 32.9681 28.5006V27.0004C32.9685 26.6035 32.8115 26.2226 32.5314 25.9413C32.2513 25.6601 31.8711 25.5014 31.4742 25.5002V25.5002Z" fill="#0F9989"/>
<path fill-rule="evenodd" clip-rule="evenodd" d="M10.075 6.15128C10.1074 6.10547 10.1501 6.06788 10.1996 6.04148C10.2491 6.01508 10.3041 6.00061 10.3603 5.99922H13.5362V7.49941C13.5362 8.32711 14.2072 8.99961 15.0317 8.99961C15.4286 8.99836 15.8088 8.83971 16.0889 8.55846C16.369 8.27721 16.5261 7.89633 16.5256 7.49941L16.6197 3.0004L19.5151 3.09445V7.49941C19.5151 8.32711 20.186 8.99961 21.0105 8.99961C21.4075 8.99836 21.7877 8.83971 22.0677 8.55846C22.3478 8.27721 22.5049 7.89633 22.5045 7.49941V5.99922H34.6518C34.818 5.99922 34.9183 6.12463 34.934 6.15284L41.8471 17.8205C41.8346 17.8425 41.7499 17.9992 41.5602 17.9992H3.45027C3.30918 17.9992 3.22767 17.8848 3.18848 17.8926L10.075 6.15128V6.15128ZM26.9894 45.0012H18.0211V37.8733C18.0211 36.8402 18.8598 35.9984 19.8897 35.9984H25.1224C26.1523 35.9984 26.9894 36.8402 26.9894 37.8733V44.9996V45.0012Z" fill="white" fill-opacity="0.5"/>
</svg>

<svg width="46" height="48" viewBox="0 0 46 48" fill="none" xmlns="http://www.w3.org/2000/svg"><path fill-rule="evenodd" clip-rule="evenodd" d="M37.682 4.623l6.893 11.68c.57.967.564 2.104.01 3.079-.53.934-1.153 1.528-2.649 1.662v17.648A9.256 9.256 0 0132.661 48H12.349a9.256 9.256 0 01-9.275-9.308V21.045C1.578 20.91.956 20.33.424 19.393c-.553-.975-.576-2.123-.006-3.088L7.328 4.62C7.937 3.59 9.1 3 10.36 3h3.197C13.66 1.499 14.986 0 16.62 0h2.802c1.634 0 2.96 1.499 3.064 2.999H34.65c1.262 0 2.422.59 3.03 1.624h.002z" fill="#13C1AC" fill-opacity=".7"/><path fill-rule="evenodd" clip-rule="evenodd" d="M32.66 45.001H29.98v-7.128c0-2.687-2.18-4.875-4.857-4.875H19.89a4.872 4.872 0 00-4.86 4.875V45h-2.68c-3.43 0-6.287-2.87-6.287-6.31V21h32.884v17.692c0 3.442-2.856 6.31-6.286 6.31zm-5.67 0H18.02v-7.128c0-1.033.839-1.875 1.869-1.875h5.232c1.03 0 1.867.842 1.867 1.875v7.128zM10.074 6.151A.36.36 0 0110.36 6h3.176v1.5A1.5 1.5 0 0015.032 9a1.499 1.499 0 001.494-1.5L16.62 3l2.895.094V7.5c0 .828.67 1.5 1.495 1.5a1.499 1.499 0 001.494-1.5V6h12.148a.35.35 0 01.282.154l6.913 11.667c-.013.022-.097.18-.287.18H3.45c-.14 0-.222-.115-.262-.107L10.075 6.15zM37.68 4.623l6.895 11.68c.57.967.564 2.104.01 3.079-.53.934-1.153 1.528-2.649 1.662v17.648A9.256 9.256 0 0132.661 48H12.349a9.256 9.256 0 01-9.275-9.308V21.045C1.578 20.91.956 20.33.424 19.393c-.553-.975-.576-2.123-.006-3.088L7.328 4.62C7.937 3.59 9.1 3 10.36 3h3.197C13.66 1.499 14.986 0 16.62 0h2.802c1.634 0 2.96 1.499 3.064 2.999H34.65c1.262 0 2.422.59 3.03 1.624zM13.536 25.5a1.499 1.499 0 00-1.494 1.5v1.5c0 .828.67 1.5 1.494 1.5a1.499 1.499 0 001.496-1.5V27a1.498 1.498 0 00-1.496-1.5zm5.98 0a1.498 1.498 0 00-1.495 1.5v1.5c0 .828.67 1.5 1.495 1.5a1.499 1.499 0 001.494-1.5V27a1.498 1.498 0 00-1.494-1.5zm5.98 0A1.499 1.499 0 0024 27v1.5c0 .828.67 1.5 1.495 1.5a1.499 1.499 0 001.494-1.5V27a1.5 1.5 0 00-1.494-1.5zm5.978 0A1.498 1.498 0 0029.98 27v1.5c0 .828.67 1.5 1.495 1.5a1.499 1.499 0 001.494-1.5V27a1.499 1.499 0 00-1.494-1.5z" fill="#0F9989"/><path fill-rule="evenodd" clip-rule="evenodd" d="M10.075 6.151A.36.36 0 0110.36 6h3.176v1.5A1.5 1.5 0 0015.032 9a1.499 1.499 0 001.494-1.5L16.62 3l2.895.094V7.5c0 .828.671 1.5 1.495 1.5a1.498 1.498 0 001.494-1.5V6h12.148a.35.35 0 01.282.154l6.913 11.667c-.012.023-.097.18-.287.18H3.45c-.14 0-.222-.115-.262-.107L10.075 6.15zm16.914 38.85h-8.968v-7.128c0-1.033.839-1.875 1.869-1.875h5.232c1.03 0 1.867.842 1.867 1.875v7.128z" fill="#fff" fill-opacity=".5"/></svg>
